resources/icons/16px/at.svg

<svg width="16" height="16" viewBox="0 0 16 16" fill="none" xmlns="http://www.w3.org/2000/svg">
<path fill-rule="evenodd" clip-rule="evenodd" d="M5.81598 8.37141C5.81598 9.8857 6.41941 10.6446 7.6297 10.6446C8.90284 10.6446 9.60113 9.69141 9.71884 7.78513L9.83884 5.4537C9.42055 5.34513 8.97598 5.28913 8.5017 5.28913C7.6537 5.28913 6.99541 5.56456 6.52341 6.11656C6.05141 6.67084 5.81598 7.4217 5.81598 8.37141M16 7.13257C16 8.06286 15.8514 8.91314 15.5543 9.68343C15.2571 10.4537 14.84 11.0549 14.3006 11.4846C13.7623 11.9131 13.1394 12.1269 12.4331 12.1269C11.912 12.1269 11.4583 11.9897 11.0766 11.7177C10.6937 11.4434 10.4354 11.0731 10.304 10.6057H10.184C9.86057 11.112 9.46057 11.4926 8.98629 11.7463C8.50971 12.0011 7.97486 12.1269 7.38057 12.1269C6.30514 12.1269 5.45714 11.7863 4.84 11.1029C4.22171 10.4206 3.91429 9.496 3.91429 8.33257C3.91429 6.992 4.32343 5.90514 5.14286 5.06857C5.96114 4.23429 7.06057 3.816 8.44114 3.816C8.94286 3.816 9.49943 3.85943 10.1097 3.94629C10.72 4.03429 11.2651 4.15657 11.7394 4.31314L11.5223 8.84914V9.08343C11.5223 10.1234 11.8663 10.6446 12.5531 10.6446C13.0743 10.6446 13.488 10.3131 13.7943 9.64914C14.1017 8.98514 14.2571 8.14057 14.2571 7.112C14.2571 6 14.0251 5.02286 13.5623 4.18057C13.1006 3.33943 12.4446 2.69029 11.592 2.23429C10.7406 1.77829 9.76229 1.552 8.65829 1.552C7.25257 1.552 6.02971 1.83771 4.98743 2.41029C3.94743 2.98171 3.15429 3.80114 2.60571 4.86514C2.05714 5.92686 1.784 7.16114 1.784 8.56571C1.784 10.4526 2.296 11.904 3.31886 12.9177C4.34286 13.9326 5.81143 14.4389 7.728 14.4389C9.18743 14.4389 10.7097 14.1474 12.2949 13.5611V15.1611C10.9086 15.7211 9.39886 16 7.768 16C5.32229 16 3.41714 15.3509 2.05143 14.0549C0.684571 12.7566 0 10.9474 0 8.62514C0 6.92686 0.369143 5.416 1.10971 4.09257C1.84914 2.77029 2.87543 1.75771 4.18629 1.05486C5.49714 0.350857 6.98171 0 8.64 0C10.0731 0 11.3497 0.293714 12.4674 0.877714C13.5886 1.464 14.4571 2.29943 15.0743 3.38171C15.6926 4.464 16 5.71429 16 7.13257" fill="black"/>
</svg>

<svg xmlns="http://www.w3.org/2000/svg" viewBox="0 0 16 16">
  <path d="M5.816 8.371q-.001 2.273 1.814 2.274 1.91 0 2.089-2.86l.12-2.331a5.3 5.3 0 0 0-1.337-.165q-1.272 0-1.979.828-.707.83-.707 2.254M16 7.133q0 1.395-.446 2.55-.445 1.156-1.253 1.802a2.9 2.9 0 0 1-1.868.642q-.783 0-1.356-.41a2 2 0 0 1-.773-1.111h-.12q-.485.76-1.198 1.14a3.35 3.35 0 0 1-1.605.38q-1.615 0-2.541-1.023-.927-1.024-.926-2.77 0-2.01 1.229-3.264Q6.37 3.816 8.44 3.816q.753 0 1.669.13.916.132 1.63.367l-.218 4.536v.234q0 1.561 1.031 1.562.782 0 1.241-.996.462-.995.463-2.537 0-1.669-.695-2.931a4.76 4.76 0 0 0-1.97-1.947q-1.277-.683-2.934-.682-2.107 0-3.67.858a5.74 5.74 0 0 0-2.382 2.455q-.823 1.593-.822 3.7 0 2.832 1.535 4.353t4.409 1.52q2.19.002 4.567-.877v1.6q-2.08.84-4.527.839-3.668-.001-5.717-1.945Q.001 12.108 0 8.625q0-2.547 1.11-4.532a7.56 7.56 0 0 1 3.076-3.038Q6.153 0 8.64 0q2.15.001 3.827.878a6.3 6.3 0 0 1 2.607 2.504q.927 1.623.926 3.75"/>
</svg>
